curriculum/images/exercise-icons/sleepy-house.svg

<svg width="87" height="87" viewBox="0 0 87 87" fill="none" xmlns="http://www.w3.org/2000/svg">
<g clip-path="url(#clip0_139_110)">
<path d="M43.5 83.5026C50.5169 83.502 57.4099 81.6533 63.4853 78.1423C69.5607 74.6313 74.6041 69.582 78.108 63.5026H8.89197C12.3959 69.582 17.4393 74.6313 23.5147 78.1423C29.59 81.6533 36.483 83.502 43.5 83.5026Z" fill="#40493A"/>
<path d="M7.06396 60.0026C7.60996 61.2026 8.23396 62.3656 8.89196 63.5026H78.108C78.766 62.3656 79.39 61.2026 79.936 60.0026H7.06396Z" fill="#373A35"/>
<path d="M83.5 43.5025C83.5008 37.5327 82.1653 31.6384 79.5914 26.2519C77.0176 20.8654 73.2707 16.1233 68.6256 12.3734C63.9804 8.62351 58.5548 5.96091 52.7467 4.58088C46.9386 3.20084 40.8952 3.13838 35.0597 4.39805C29.2243 5.65773 23.7448 8.2076 19.0232 11.8607C14.3015 15.5137 10.4574 20.1774 7.77278 25.5095C5.08816 30.8416 3.63109 36.7071 3.50844 42.6757C3.3858 48.6442 4.60068 54.5646 7.064 60.0025H79.936C82.2888 54.8202 83.5041 49.1939 83.5 43.5025Z" fill="#2C3538"/>
<path d="M4.5 60.0026H82.5" stroke="#45413C" stroke-linecap="round" stroke-linejoin="round"/>
<path d="M0 60.0026H2.5" stroke="#45413C" stroke-linecap="round" stroke-linejoin="round"/>
<path d="M84.5 60.0026H87" stroke="#45413C" stroke-linecap="round" stroke-linejoin="round"/>
<path d="M12.889 14.4026H69.844V28.9886H12.889V14.4026Z" fill="#00DBA8"/>
<path d="M68.687 14.4026H14.047C13.74 14.4029 13.4456 14.5249 13.2285 14.7421C13.0114 14.9592 12.8893 15.2535 12.889 15.5606V22.0436H69.845V15.5606C69.8448 15.2535 69.7227 14.9592 69.5056 14.7421C69.2885 14.5249 68.9941 14.4029 68.687 14.4026Z" fill="#8CFFE4"/>
<path d="M12.889 14.4026H69.844V28.9886H12.889V14.4026Z" stroke="#45413C" stroke-linecap="round" stroke-linejoin="round"/>
<path d="M36.3891 29.4026C36.1034 29.4017 35.8283 29.2948 35.6171 29.1026L25.3921 19.9596L15.1661 29.1086C15.0464 29.2157 14.9057 29.2968 14.753 29.3465C14.6003 29.3963 14.4389 29.4137 14.2791 29.3976V62.3286H36.5051V29.4026C36.4664 29.4046 36.4277 29.4046 36.3891 29.4026Z" fill="white"/>
<path d="M24.5351 25.5716C24.7721 25.364 25.0765 25.2496 25.3916 25.2496C25.7066 25.2496 26.011 25.364 26.2481 25.5716L36.5051 34.5456V29.4026C36.4665 29.4066 36.4278 29.4086 36.3891 29.4086C36.1034 29.4077 35.8283 29.3008 35.6171 29.1086L25.3921 19.9596L15.1661 29.1086C15.0464 29.2157 14.9057 29.2968 14.753 29.3465C14.6003 29.3963 14.4389 29.4137 14.2791 29.3976V62.3286L24.5351 25.5716Z" fill="#F8F8F8"/>
<path d="M36.5051 62.3285H14.2791V28.9885L25.3921 19.2645L36.5051 28.9885V62.3285Z" stroke="#45413C" stroke-linecap="round" stroke-linejoin="round"/>
<path d="M36.505 28.9885H68.455V62.3285H36.505V28.9885Z" fill="white"/>
<path d="M36.505 28.9885H68.456V32.9365H36.505V28.9885Z" fill="#F8F8F8"/>
<path d="M36.505 28.9885H68.455V62.3285H36.505V28.9885Z" stroke="#45413C" stroke-linecap="round" stroke-linejoin="round"/>
<path d="M31.338 58.8555H19.446C19.1808 58.8555 18.9265 58.7502 18.7389 58.5627C18.5514 58.3751 18.446 58.1208 18.446 57.8555V47.7426H32.338V57.8555C32.338 58.1208 32.2327 58.3751 32.0452 58.5627C31.8576 58.7502 31.6033 58.8555 31.338 58.8555Z" fill="#00B8F0"/>
<path d="M18.446 57.6976C18.4458 58.0041 18.5671 58.2982 18.7835 58.5153C18.9999 58.7324 19.2935 58.8548 19.6 58.8555H21.155L27.827 47.7426H18.446V57.6976Z" fill="#4ACFFF"/>
<path d="M31.338 58.8555H19.446C19.1808 58.8555 18.9265 58.7502 18.7389 58.5627C18.5514 58.3751 18.446 58.1208 18.446 57.8555V47.7426H32.338V57.8555C32.338 58.1208 32.2327 58.3751 32.0452 58.5627C31.8576 58.7502 31.6033 58.8555 31.338 58.8555Z" stroke="#45413C" stroke-linecap="round" stroke-linejoin="round"/>
<path d="M63.983 58.8555H53.48C53.2148 58.8555 52.9604 58.7502 52.7729 58.5627C52.5853 58.3751 52.48 58.1208 52.48 57.8555V47.7426H64.98V57.8555C64.98 58.1202 64.875 58.3742 64.6882 58.5616C64.5013 58.7491 64.2477 58.8548 63.983 58.8555Z" fill="#00B8F0"/>
<path d="M52.48 57.6976C52.48 57.8496 52.5099 58.0002 52.5681 58.1407C52.6263 58.2812 52.7116 58.4089 52.8192 58.5164C52.9267 58.6239 53.0543 58.7092 53.1948 58.7674C53.3353 58.8256 53.4859 58.8555 53.638 58.8555H55.193L61.861 47.7426H52.48V57.6976Z" fill="#4ACFFF"/>
<path d="M63.983 58.8555H53.48C53.2148 58.8555 52.9604 58.7502 52.7729 58.5627C52.5853 58.3751 52.48 58.1208 52.48 57.8555V47.7426H64.98V57.8555C64.98 58.1202 64.875 58.3742 64.6882 58.5616C64.5013 58.7491 64.2477 58.8548 63.983 58.8555Z" stroke="#45413C" stroke-linecap="round" stroke-linejoin="round"/>
<path d="M65.292 47.1646C65.3292 47.2206 65.3506 47.2856 65.3538 47.3527C65.357 47.4199 65.342 47.4867 65.3103 47.546C65.2786 47.6053 65.2314 47.6549 65.1738 47.6895C65.1162 47.7241 65.0502 47.7425 64.983 47.7426H36.505V43.5746H62.279C62.4697 43.5747 62.6575 43.6219 62.8256 43.7119C62.9938 43.8019 63.1371 43.932 63.243 44.0906L65.292 47.1646Z" fill="#00DBA8" stroke="#45413C" stroke-linecap="round" stroke-linejoin="round"/>
<path d="M36.505 62.3286H68.845C69.1102 62.3286 69.3646 62.434 69.5521 62.6215C69.7396 62.809 69.845 63.0634 69.845 63.3286V69.2746H36.505V62.3286Z" fill="#F0C2A1"/>
<path d="M68.687 62.3286H36.505V65.1026H69.845V63.4826C69.8439 63.1762 69.7215 62.8827 69.5044 62.6664C69.2874 62.4501 68.9934 62.3286 68.687 62.3286Z" fill="#FFE3CF"/>
<path d="M13.889 62.3286H36.505V69.2746H12.889V63.3286C12.889 63.0634 12.9944 62.809 13.1819 62.6215C13.3695 62.434 13.6238 62.3286 13.889 62.3286Z" fill="#F0C2A1"/>
<path d="M14.047 62.3286C13.7399 62.3286 13.4454 62.4506 13.2282 62.6678C13.011 62.885 12.889 63.1795 12.889 63.4866V65.1026H36.505V62.3286H14.047Z" fill="#FFE3CF"/>
<path d="M36.505 62.3286H68.845C69.1102 62.3286 69.3646 62.434 69.5521 62.6215C69.7396 62.809 69.845 63.0634 69.845 63.3286V69.2746H36.505V62.3286Z" stroke="#45413C" stroke-linecap="round" stroke-linejoin="round"/>
<path d="M22.614 35.2396H28.171V43.5746H22.614V35.2396Z" fill="#00B8F0"/>
<path d="M22.614 35.2396V43.5746L27.616 35.2396H22.614Z" fill="#4ACFFF"/>
<path d="M22.614 35.2396H28.171V43.5746H22.614V35.2396Z" stroke="#45413C" stroke-linecap="round" stroke-linejoin="round"/>
<path d="M22.614 47.7426H28.171V58.8555H22.614V47.7426Z" stroke="#45413C" stroke-linecap="round" stroke-linejoin="round"/>
<path d="M55.953 47.7426H61.51V58.8555H55.953V47.7426Z" stroke="#45413C" stroke-linecap="round" stroke-linejoin="round"/>
<path d="M46.924 62.3285H36.505V50.5205H45.924C46.1892 50.5205 46.4436 50.6259 46.6311 50.8134C46.8186 51.0009 46.924 51.2553 46.924 51.5205V62.3285Z" fill="#E0E0E0" stroke="#45413C" stroke-linecap="round" stroke-linejoin="round"/>
<path d="M18.137 47.1646C18.0997 47.2206 18.0784 47.2856 18.0751 47.3527C18.0719 47.4199 18.0869 47.4867 18.1186 47.546C18.1503 47.6053 18.1975 47.6549 18.2551 47.6895C18.3128 47.7241 18.3787 47.7425 18.446 47.7426H32.338C32.4052 47.7425 32.4711 47.7241 32.5288 47.6895C32.5864 47.6549 32.6336 47.6053 32.6653 47.546C32.697 47.4867 32.712 47.4199 32.7088 47.3527C32.7055 47.2856 32.6842 47.2206 32.647 47.1646L30.6 44.0906C30.4941 43.932 30.3507 43.8019 30.1826 43.7119C30.0144 43.6219 29.8267 43.5747 29.636 43.5746H21.149C20.9584 43.5747 20.7708 43.6219 20.6028 43.7119C20.4348 43.8019 20.2916 43.932 20.186 44.0906L18.137 47.1646Z" fill="#00DBA8" stroke="#45413C" stroke-linecap="round" stroke-linejoin="round"/>
<path d="M21.4561 32.4615H29.3281V35.2395H21.4561V32.4615Z" fill="#BF8256" stroke="#45413C" stroke-linecap="round" stroke-linejoin="round"/>
<path d="M40.209 32.4615H48.081V35.2395H40.209V32.4615Z" fill="#BF8256" stroke="#45413C" stroke-linecap="round" stroke-linejoin="round"/>
<path d="M54.101 32.4615H61.9729V35.2395H54.101V32.4615Z" fill="#BF8256" stroke="#45413C" stroke-linecap="round" stroke-linejoin="round"/>
<path d="M67.7611 6.53052H63.5931C63.2859 6.53052 62.9914 6.65252 62.7742 6.86969C62.5571 7.08686 62.4351 7.3814 62.4351 7.68852C62.4351 7.99564 62.5571 8.29018 62.7742 8.50735C62.9914 8.72451 63.2859 8.84652 63.5931 8.84652H67.7611C67.9131 8.84652 68.0637 8.81657 68.2042 8.75837C68.3447 8.70018 68.4724 8.61488 68.5799 8.50735C68.6874 8.39982 68.7727 8.27216 68.8309 8.13167C68.8891 7.99117 68.9191 7.84059 68.9191 7.68852C68.9191 7.53645 68.8891 7.38586 68.8309 7.24537C68.7727 7.10487 68.6874 6.97722 68.5799 6.86969C68.4724 6.76216 68.3447 6.67686 68.2042 6.61866C68.0637 6.56047 67.9131 6.53052 67.7611 6.53052Z" fill="#DAEDF7" stroke="#45413C" stroke-linecap="round" stroke-linejoin="round"/>
<path d="M41.3669 35.2396H46.9239V43.5746H41.3669V35.2396Z" fill="#00B8F0"/>
<path d="M41.3669 35.2396V43.5746H41.3689L46.3699 35.2396H41.3669Z" fill="#4ACFFF"/>
<path d="M41.3669 35.2396H46.9239V43.5746H41.3669V35.2396Z" stroke="#45413C" stroke-linecap="round" stroke-linejoin="round"/>
<path d="M55.259 35.2396H60.816V43.5746H55.259V35.2396Z" fill="#00B8F0"/>
<path d="M55.259 35.2396V43.5746L60.261 35.2396H55.259Z" fill="#4ACFFF"/>
<path d="M55.259 35.2396H60.816V43.5746H55.259V35.2396Z" stroke="#45413C" stroke-linecap="round" stroke-linejoin="round"/>
<path d="M60.948 18.9275L58.037 17.1815L55.126 18.9275C54.9545 19.0304 54.8125 19.1759 54.714 19.3499C54.6156 19.524 54.5638 19.7205 54.564 19.9205V25.5155H61.51V19.9205C61.5099 19.7206 61.4581 19.5241 61.3596 19.3501C61.2611 19.1761 61.1193 19.0305 60.948 18.9275Z" fill="#F8F8F8" stroke="#45413C" stroke-linecap="round" stroke-linejoin="round"/>
<path d="M59.426 25.5156H56.6479V22.0436C56.6478 21.8611 56.6837 21.6803 56.7534 21.5117C56.8231 21.3431 56.9254 21.1898 57.0544 21.0607C57.1834 20.9317 57.3366 20.8293 57.5052 20.7594C57.6738 20.6895 57.8545 20.6536 58.037 20.6536C58.2194 20.6536 58.4001 20.6895 58.5687 20.7594C58.7373 20.8293 58.8905 20.9317 59.0195 21.0607C59.1485 21.1898 59.2508 21.3431 59.3205 21.5117C59.3903 21.6803 59.4261 21.8611 59.426 22.0436V25.5156Z" fill="#00B8F0"/>
<path d="M59.3789 21.8106C59.3285 21.49 59.1659 21.1978 58.9202 20.9859C58.6744 20.774 58.3614 20.6563 58.037 20.6536C57.8545 20.6536 57.6738 20.6895 57.5052 20.7594C57.3366 20.8293 57.1834 20.9317 57.0544 21.0607C56.9254 21.1898 56.8231 21.3431 56.7534 21.5117C56.6837 21.6803 56.6478 21.8611 56.6479 22.0436V24.5436L59.3789 21.8106Z" fill="#4ACFFF"/>
<path d="M59.426 25.5156H56.6479V22.0436C56.6478 21.8611 56.6837 21.6803 56.7534 21.5117C56.8231 21.3431 56.9254 21.1898 57.0544 21.0607C57.1834 20.9317 57.3366 20.8293 57.5052 20.7594C57.6738 20.6895 57.8545 20.6536 58.037 20.6536C58.2194 20.6536 58.4001 20.6895 58.5687 20.7594C58.7373 20.8293 58.8905 20.9317 59.0195 21.0607C59.1485 21.1898 59.2508 21.3431 59.3205 21.5117C59.3903 21.6803 59.4261 21.8611 59.426 22.0436V25.5156Z" stroke="#45413C" stroke-linecap="round" stroke-linejoin="round"/>
<path d="M63.593 8.84656H67.761V16.8756C67.761 17.1408 67.6557 17.3951 67.4681 17.5827C67.2806 17.7702 67.0262 17.8756 66.761 17.8756H64.593C64.3278 17.8756 64.0734 17.7702 63.8859 17.5827C63.6984 17.3951 63.593 17.1408 63.593 16.8756V8.84656Z" fill="#DAEDF7" stroke="#45413C" stroke-linecap="round" stroke-linejoin="round"/>
<path d="M36.505 62.3286H46.924V69.2746H36.505V62.3286Z" fill="#BF8256" stroke="#45413C" stroke-linecap="round" stroke-linejoin="round"/>
<path d="M49.7 69.2746H46.924V57.4666H48.7C48.9652 57.4666 49.2195 57.5719 49.4071 57.7594C49.5946 57.947 49.7 58.2013 49.7 58.4665V69.2746Z" fill="#B89558" stroke="#45413C" stroke-linecap="round" stroke-linejoin="round"/>
<path d="M44.145 62.3286H39.283V54.3026C39.283 54.0374 39.3883 53.783 39.5759 53.5955C39.7634 53.408 40.0177 53.3026 40.283 53.3026H43.145C43.4102 53.3026 43.6645 53.408 43.8521 53.5955C44.0396 53.783 44.145 54.0374 44.145 54.3026V62.3286Z" fill="#915E3A" stroke="#45413C" stroke-linecap="round" stroke-linejoin="round"/>
<path d="M13.889 62.3286H36.505V69.2746H12.889V63.3286C12.889 63.0634 12.9944 62.809 13.1819 62.6215C13.3695 62.434 13.6238 62.3286 13.889 62.3286Z" stroke="#45413C" stroke-linecap="round" stroke-linejoin="round"/>
<path d="M36.505 64.4126H46.924V66.4966H36.505V64.4126Z" stroke="#45413C" stroke-linecap="round" stroke-linejoin="round"/>
<path d="M21.51 23.4326H29.273" stroke="#45413C" stroke-linecap="round" stroke-linejoin="round"/>
<path d="M25.392 19.9596V23.4326" stroke="#45413C" stroke-linecap="round" stroke-linejoin="round"/>
<path d="M54.564 25.5155V26.9055" stroke="#45413C" stroke-linecap="round" stroke-linejoin="round"/>
<path d="M61.51 25.5155V26.9055" stroke="#45413C" stroke-linecap="round" stroke-linejoin="round"/>
<path d="M17.751 66.4956H30.948" stroke="#45413C" stroke-linecap="round" stroke-linejoin="round"/>
<path d="M53.175 66.4956H66.3721" stroke="#45413C" stroke-linecap="round" stroke-linejoin="round"/>
<path d="M67.3359 69.0786V69.0686L67.3459 69.0786H80.4759C80.5865 68.8022 80.6275 68.503 80.5953 68.2071C80.5631 67.9112 80.4588 67.6277 80.2914 67.3816C80.124 67.1355 79.8987 66.9343 79.6353 66.7957C79.372 66.6571 79.0786 66.5852 78.7809 66.5866C78.6415 66.5979 78.5038 66.6257 78.3709 66.6696C78.3946 66.5212 78.4096 66.3716 78.4159 66.2216C78.4165 65.3005 78.1001 64.4074 77.5198 63.6921C76.9395 62.9769 76.1308 62.4831 75.2295 62.2938C74.3281 62.1045 73.389 62.2311 72.57 62.6524C71.751 63.0738 71.102 63.7641 70.7319 64.6076C70.315 64.4393 69.8646 64.3705 69.4165 64.4066C68.9683 64.4428 68.5348 64.5829 68.1502 64.8158C67.7657 65.0488 67.4407 65.3681 67.2011 65.7486C66.9615 66.129 66.8139 66.5601 66.7699 67.0076C66.4553 66.7403 66.0577 66.5905 65.6449 66.5836C65.1609 66.5836 64.6967 66.7758 64.3545 67.1181C64.0122 67.4603 63.8199 67.9245 63.8199 68.4086C63.8205 68.6371 63.8647 68.8635 63.9499 69.0756L67.3359 69.0786Z" fill="#6DD627" stroke="#45413C" stroke-linecap="round" stroke-linejoin="round"/>
<path d="M36.389 29.4026C36.1034 29.4017 35.8283 29.2948 35.617 29.1026L25.392 19.9596L15.166 29.1086C14.9373 29.3132 14.6366 29.4186 14.3302 29.4015C14.0237 29.3845 13.7366 29.2464 13.532 29.0176C13.3274 28.7889 13.222 28.4882 13.2391 28.1818C13.2562 27.8753 13.3943 27.5882 13.623 27.3836L24.623 17.5436C24.8351 17.3533 25.11 17.248 25.395 17.248C25.68 17.248 25.9549 17.3533 26.167 17.5436L37.167 27.3836C37.3419 27.5398 37.4653 27.7455 37.5206 27.9734C37.576 28.2013 37.5609 28.4406 37.4771 28.6597C37.3934 28.8787 37.2451 29.0672 37.0518 29.2C36.8586 29.3329 36.6295 29.4039 36.395 29.4036L36.389 29.4026Z" fill="#00DBA8" stroke="#45413C" stroke-linecap="round" stroke-linejoin="round"/>
</g>
<defs>
<clipPath id="clip0_139_110">
<rect width="87" height="87" fill="white"/>
</clipPath>
</defs>
</svg>

<svg xmlns="http://www.w3.org/2000/svg" width="87" height="87" fill="none" viewBox="0 0 87 87"><g clip-path="url(#a)"><path fill="#40493a" d="M43.5 83.503a39.95 39.95 0 0 0 34.608-20H8.892a39.95 39.95 0 0 0 34.608 20"/><path fill="#373a35" d="M7.064 60.003c.546 1.2 1.17 2.363 1.828 3.5h69.216a41 41 0 0 0 1.828-3.5z"/><path fill="#2c3538" d="M83.5 43.503A39.998 39.998 0 0 0 19.023 11.86 40 40 0 0 0 7.064 60.002h72.872a39.84 39.84 0 0 0 3.564-16.5"/><path stroke="#45413c" stroke-linecap="round" stroke-linejoin="round" d="M4.5 60.003h78M0 60.003h2.5M84.5 60.003H87"/><path fill="#00dba8" d="M12.889 14.403h56.955v14.586H12.889z"/><path fill="#8cffe4" d="M68.687 14.403h-54.64a1.16 1.16 0 0 0-1.158 1.158v6.483h56.956V15.56a1.16 1.16 0 0 0-1.158-1.158"/><path stroke="#45413c" stroke-linecap="round" stroke-linejoin="round" d="M12.889 14.403h56.955v14.586H12.889z"/><path fill="#fff" d="M36.39 29.403c-.287-.001-.562-.108-.773-.3L25.392 19.96l-10.226 9.149a1.16 1.16 0 0 1-.887.289v32.93h22.226V29.404a1 1 0 0 1-.116 0"/><path fill="#f8f8f8" d="M24.535 25.572a1.3 1.3 0 0 1 1.713 0l10.257 8.974v-5.143a1.152 1.152 0 0 1-.888-.294l-10.225-9.15-10.226 9.15a1.16 1.16 0 0 1-.887.289v32.93z"/><path stroke="#45413c" stroke-linecap="round" stroke-linejoin="round" d="M36.505 62.329H14.28v-33.34l11.113-9.724 11.113 9.723z"/><path fill="#fff" d="M36.505 28.989h31.95v33.34h-31.95z"/><path fill="#f8f8f8" d="M36.505 28.989h31.951v3.948H36.505z"/><path stroke="#45413c" stroke-linecap="round" stroke-linejoin="round" d="M36.505 28.989h31.95v33.34h-31.95z"/><path fill="#00b8f0" d="M31.338 58.856H19.446a1 1 0 0 1-1-1V47.743h13.892v10.112a1 1 0 0 1-1 1"/><path fill="#4acfff" d="M18.446 57.698a1.157 1.157 0 0 0 1.154 1.157h1.555l6.672-11.112h-9.381z"/><path stroke="#45413c" stroke-linecap="round" stroke-linejoin="round" d="M31.338 58.856H19.446a1 1 0 0 1-1-1V47.743h13.892v10.112a1 1 0 0 1-1 1"/><path fill="#00b8f0" d="M63.983 58.856H53.48a1 1 0 0 1-1-1V47.743h12.5v10.112a1 1 0 0 1-.997 1"/><path fill="#4acfff" d="M52.48 57.698a1.16 1.16 0 0 0 1.158 1.157h1.555l6.668-11.112H52.48z"/><path stroke="#45413c" stroke-linecap="round" stroke-linejoin="round" d="M63.983 58.856H53.48a1 1 0 0 1-1-1V47.743h12.5v10.112a1 1 0 0 1-.997 1"/><path fill="#00dba8" stroke="#45413c" stroke-linecap="round" stroke-linejoin="round" d="M65.292 47.165a.372.372 0 0 1-.309.578H36.505v-4.168h25.774a1.16 1.16 0 0 1 .964.516z"/><path fill="#f0c2a1" d="M36.505 62.329h32.34a1 1 0 0 1 1 1v5.946h-33.34z"/><path fill="#ffe3cf" d="M68.687 62.329H36.505v2.774h33.34v-1.62a1.16 1.16 0 0 0-1.158-1.154"/><path fill="#f0c2a1" d="M13.889 62.329h22.616v6.946H12.889v-5.946a1 1 0 0 1 1-1"/><path fill="#ffe3cf" d="M14.047 62.329a1.16 1.16 0 0 0-1.158 1.158v1.616h23.616v-2.774z"/><path stroke="#45413c" stroke-linecap="round" stroke-linejoin="round" d="M36.505 62.329h32.34a1 1 0 0 1 1 1v5.946h-33.34z"/><path fill="#00b8f0" d="M22.614 35.24h5.557v8.335h-5.557z"/><path fill="#4acfff" d="M22.614 35.24v8.335l5.002-8.335z"/><path stroke="#45413c" stroke-linecap="round" stroke-linejoin="round" d="M22.614 35.24h5.557v8.335h-5.557zM22.614 47.743h5.557v11.112h-5.557zM55.953 47.743h5.557v11.112h-5.557z"/><path fill="#e0e0e0" stroke="#45413c" stroke-linecap="round" stroke-linejoin="round" d="M46.924 62.329H36.505V50.52h9.419a1 1 0 0 1 1 1z"/><path fill="#00dba8" stroke="#45413c" stroke-linecap="round" stroke-linejoin="round" d="M18.137 47.165a.372.372 0 0 0 .309.578h13.892a.372.372 0 0 0 .309-.578L30.6 44.09a1.16 1.16 0 0 0-.964-.516h-8.487a1.16 1.16 0 0 0-.963.516z"/><path fill="#bf8256" stroke="#45413c" stroke-linecap="round" stroke-linejoin="round" d="M21.456 32.462h7.872v2.777h-7.872zM40.209 32.462h7.872v2.777h-7.872zM54.101 32.462h7.872v2.777H54.1z"/><path fill="#daedf7" stroke="#45413c" stroke-linecap="round" stroke-linejoin="round" d="M67.761 6.53h-4.168a1.158 1.158 0 1 0 0 2.317h4.168a1.158 1.158 0 0 0 0-2.316"/><path fill="#00b8f0" d="M41.367 35.24h5.557v8.335h-5.557z"/><path fill="#4acfff" d="M41.367 35.24v8.335h.002l5-8.335z"/><path stroke="#45413c" stroke-linecap="round" stroke-linejoin="round" d="M41.367 35.24h5.557v8.335h-5.557z"/><path fill="#00b8f0" d="M55.259 35.24h5.557v8.335h-5.557z"/><path fill="#4acfff" d="M55.259 35.24v8.335l5.002-8.335z"/><path stroke="#45413c" stroke-linecap="round" stroke-linejoin="round" d="M55.259 35.24h5.557v8.335h-5.557z"/><path fill="#f8f8f8" stroke="#45413c" stroke-linecap="round" stroke-linejoin="round" d="m60.948 18.928-2.911-1.747-2.911 1.746a1.16 1.16 0 0 0-.562.994v5.595h6.946V19.92a1.16 1.16 0 0 0-.562-.994"/><path fill="#00b8f0" d="M59.426 25.516h-2.778v-3.472a1.39 1.39 0 0 1 2.371-.983 1.4 1.4 0 0 1 .407.983z"/><path fill="#4acfff" d="M59.379 21.81a1.37 1.37 0 0 0-1.342-1.156 1.39 1.39 0 0 0-1.39 1.39v2.5z"/><path stroke="#45413c" stroke-linecap="round" stroke-linejoin="round" d="M59.426 25.516h-2.778v-3.472a1.39 1.39 0 0 1 2.371-.983 1.4 1.4 0 0 1 .407.983z"/><path fill="#daedf7" stroke="#45413c" stroke-linecap="round" stroke-linejoin="round" d="M63.593 8.847h4.168v8.029a1 1 0 0 1-1 1h-2.168a1 1 0 0 1-1-1z"/><path fill="#bf8256" stroke="#45413c" stroke-linecap="round" stroke-linejoin="round" d="M36.505 62.329h10.419v6.946H36.505z"/><path fill="#b89558" stroke="#45413c" stroke-linecap="round" stroke-linejoin="round" d="M49.7 69.275h-2.776V57.467H48.7a1 1 0 0 1 1 1z"/><path fill="#915e3a" stroke="#45413c" stroke-linecap="round" stroke-linejoin="round" d="M44.145 62.329h-4.862v-8.026a1 1 0 0 1 1-1h2.862a1 1 0 0 1 1 1z"/><path stroke="#45413c" stroke-linecap="round" stroke-linejoin="round" d="M13.889 62.329h22.616v6.946H12.889v-5.946a1 1 0 0 1 1-1M36.505 64.413h10.419v2.084H36.505zM21.51 23.433h7.763M25.392 19.96v3.473M54.564 25.516v1.39M61.51 25.516v1.39M17.751 66.496h13.197M53.175 66.496h13.197"/><path fill="#6dd627" stroke="#45413c" stroke-linecap="round" stroke-linejoin="round" d="M67.336 69.079v-.01l.01.01h13.13a1.817 1.817 0 0 0-1.695-2.492q-.21.016-.41.083a4 4 0 0 0 .045-.448 4.01 4.01 0 0 0-7.684-1.614 2.893 2.893 0 0 0-3.962 2.4 1.78 1.78 0 0 0-1.125-.424 1.825 1.825 0 0 0-1.825 1.825c0 .228.045.454.13.667z"/><path fill="#00dba8" stroke="#45413c" stroke-linecap="round" stroke-linejoin="round" d="M36.389 29.403c-.286-.001-.56-.108-.772-.3L25.392 19.96l-10.226 9.149a1.157 1.157 0 1 1-1.543-1.725l11-9.84a1.156 1.156 0 0 1 1.544 0l11 9.84a1.157 1.157 0 0 1-.772 2.02z"/></g><defs><clipPath id="a"><path fill="#fff" d="M0 0h87v87H0z"/></clipPath></defs></svg>
